libs/icons/src/svg/microphone-off.svg

<svg width="16" height="16" viewBox="0 0 16 16" fill="none" xmlns="http://www.w3.org/2000/svg">
<path fill-rule="evenodd" clip-rule="evenodd" d="M6.89333 10.0533L14.4733 2.47333C14.5989 2.3478 14.6694 2.17753 14.6694 2C14.6694 1.82247 14.5989 1.6522 14.4733 1.52667C14.3478 1.40113 14.1775 1.33061 14 1.33061C13.8225 1.33061 13.6522 1.40113 13.5267 1.52667L11.9133 3.14667C11.7272 2.25963 11.2424 1.4633 10.5399 0.890616C9.83738 0.317934 8.95968 0.00356646 8.05333 0H7.92667C6.87856 0.0192185 5.87989 0.449115 5.14553 1.19719C4.41117 1.94526 3.99982 2.95172 4 4V6.66667C3.99734 7.23903 4.11942 7.8051 4.35774 8.3255C4.59606 8.84589 4.94491 9.30811 5.38 9.68L4.42667 10.6267C3.87251 10.1265 3.42951 9.51562 3.12634 8.83348C2.82316 8.15134 2.66656 7.41315 2.66667 6.66667C2.66667 6.48986 2.59643 6.32029 2.4714 6.19526C2.34638 6.07024 2.17681 6 2 6C1.82319 6 1.65362 6.07024 1.5286 6.19526C1.40357 6.32029 1.33333 6.48986 1.33333 6.66667C1.33247 7.5885 1.52279 8.5005 1.89228 9.34504C2.26177 10.1896 2.80239 10.9483 3.48 11.5733L1.52667 13.5267C1.46418 13.5886 1.41458 13.6624 1.38074 13.7436C1.34689 13.8249 1.32947 13.912 1.32947 14C1.32947 14.088 1.34689 14.1751 1.38074 14.2564C1.41458 14.3376 1.46418 14.4114 1.52667 14.4733C1.58864 14.5358 1.66238 14.5854 1.74362 14.6193C1.82486 14.6531 1.91199 14.6705 2 14.6705C2.08801 14.6705 2.17514 14.6531 2.25638 14.6193C2.33762 14.5854 2.41136 14.5358 2.47333 14.4733L6.88667 10.0533H6.89333ZM5.33333 6.66667V4C5.3332 3.47731 5.48669 2.9661 5.77471 2.52992C6.06273 2.09374 6.47259 1.75182 6.95333 1.54667C7.28568 1.4103 7.64079 1.33792 8 1.33333C8.52231 1.33507 9.03261 1.49015 9.46756 1.77932C9.90251 2.0685 10.243 2.47905 10.4467 2.96C10.5854 3.28954 10.6601 3.6425 10.6667 4V4.39333L6.32667 8.73333C6.01375 8.48805 5.76142 8.1741 5.58918 7.81575C5.41694 7.4574 5.3294 7.06424 5.33333 6.66667ZM11.3333 7.02C11.1644 6.97023 10.9827 6.98926 10.8279 7.07294C10.673 7.15662 10.5575 7.29816 10.5066 7.46667C10.3841 7.87667 10.1615 8.24976 9.85894 8.55234C9.55636 8.85492 9.18327 9.07749 8.77327 9.2C8.68908 9.22517 8.6107 9.26673 8.54264 9.3223C8.47457 9.37787 8.41816 9.44634 8.37665 9.52379C8.33514 9.60123 8.30935 9.68612 8.30076 9.77356C8.29217 9.86101 8.30095 9.94929 8.3266 10.0333C8.3694 10.1751 8.45815 10.2985 8.57886 10.3842C8.69956 10.4699 8.84536 10.513 8.99327 10.5067C9.05753 10.5136 9.12234 10.5136 9.1866 10.5067C9.81945 10.3222 10.3956 9.98119 10.8617 9.51509C11.3278 9.04897 11.6688 8.47285 11.8533 7.84C11.8758 7.75189 11.8801 7.66009 11.8659 7.57026C11.8516 7.48043 11.8191 7.39446 11.7704 7.31765C11.7217 7.24084 11.6578 7.17481 11.5826 7.12362C11.5074 7.07243 11.4226 7.03717 11.3333 7.02ZM13.5286 6.19526C13.6537 6.07024 13.8232 6 14 6C14.1769 6 14.3464 6.07024 14.4714 6.19526C14.5965 6.32029 14.6667 6.48986 14.6667 6.66667C14.675 8.32511 14.0649 9.92711 12.9554 11.1598C11.846 12.3926 10.3169 13.1675 8.66671 13.3333V14.6667H11.3334C11.5102 14.6667 11.6798 14.7369 11.8048 14.8619C11.9298 14.987 12 15.1565 12 15.3333C12 15.5101 11.9298 15.6797 11.8048 15.8047C11.6798 15.9298 11.5102 16 11.3334 16H4.66671C4.4899 16 4.32033 15.9298 4.1953 15.8047C4.07028 15.6797 4.00004 15.5101 4.00004 15.3333C4.00004 15.1565 4.07028 14.987 4.1953 14.8619C4.32033 14.7369 4.4899 14.6667 4.66671 14.6667H7.33337V13.2867C6.95306 13.2503 6.57629 13.1835 6.20671 13.0867C6.12222 13.063 6.04322 13.023 5.97422 12.9688C5.90521 12.9146 5.84755 12.8474 5.80452 12.771C5.7615 12.6945 5.73395 12.6103 5.72346 12.5232C5.71297 12.4361 5.71974 12.3478 5.74337 12.2633C5.76701 12.1789 5.80706 12.0998 5.86123 12.0308C5.9154 11.9618 5.98263 11.9042 6.05908 11.8611C6.13554 11.8181 6.21971 11.7906 6.30681 11.7801C6.39391 11.7696 6.48222 11.7764 6.56671 11.8C7.03285 11.9331 7.51528 12.0004 8.00004 12C9.41453 12 10.7711 11.4381 11.7713 10.4379C12.7715 9.43771 13.3334 8.08115 13.3334 6.66667C13.3334 6.48986 13.4036 6.32029 13.5286 6.19526Z" fill="#202327"/>
</svg>

<svg xmlns="http://www.w3.org/2000/svg" viewBox="0 0 16 16" class="sageicon"><path fill-rule="evenodd" d="m6.893 10.053 7.58-7.58a.67.67 0 1 0-.946-.946l-1.614 1.62A3.96 3.96 0 0 0 8.053 0h-.126A4 4 0 0 0 4 4v2.667A3.94 3.94 0 0 0 5.38 9.68l-.953.947a5.334 5.334 0 0 1-1.76-3.96.667.667 0 0 0-1.334 0 6.667 6.667 0 0 0 2.147 4.906l-1.953 1.954a.666.666 0 0 0 0 .946.667.667 0 0 0 .946 0l4.414-4.42h.006Zm-1.56-3.386V4a2.667 2.667 0 0 1 1.62-2.453A2.853 2.853 0 0 1 8 1.333a2.667 2.667 0 0 1 2.447 1.627c.138.33.213.683.22 1.04v.393l-4.34 4.34a2.593 2.593 0 0 1-.994-2.066Zm6 .353a.667.667 0 0 0-.826.447A2.58 2.58 0 0 1 8.773 9.2a.667.667 0 0 0 .22 1.307c.065.007.13.007.194 0a3.92 3.92 0 0 0 2.666-2.667.668.668 0 0 0-.52-.82Zm2.196-.825a.667.667 0 0 1 1.138.472 6.666 6.666 0 0 1-6 6.666v1.334h2.666a.667.667 0 1 1 0 1.333H4.667a.666.666 0 1 1 0-1.333h2.666v-1.38a7.126 7.126 0 0 1-1.126-.2.669.669 0 0 1 .36-1.287c.466.133.948.2 1.433.2a5.333 5.333 0 0 0 5.333-5.333c0-.177.07-.347.196-.472Z"/></svg>
